data/img/material/black/cursor-move.svg

<svg xmlns="http://www.w3.org/2000/svg" viewBox="0 0 24 24">
    <path d="M16.25 6H13v5h5V7.75L22.25 12 18 16.25V13h-5v5h3.25L12 22.25 7.75 18H11v-5H6v3.25L1.75 12 6 7.75V11h5V6H7.75L12 1.75Z"/>
</svg>

<svg viewBox="0 0 24 24">
    <path d="M13,6V11H18V7.75L22.25,12L18,16.25V13H13V18H16.25L12,22.25L7.75,18H11V13H6V16.25L1.75,12L6,7.75V11H11V6H7.75L12,1.75L16.25,6H13Z"/>
</svg>
